portfolio/static/icons/email-black-icon.svg

<?xml version="1.0" encoding="utf-8"?>
<svg fill="#000000" width="24px" height="24px" viewBox="0 0 32 32" style="fill-rule:evenodd;clip-rule:evenodd;stroke-linejoin:round;stroke-miterlimit:2;" version="1.1" xml:space="preserve" xmlns="http://www.w3.org/2000/svg" xmlns:serif="http://www.serif.com/" xmlns:xlink="http://www.w3.org/1999/xlink">
    <path d="M31,10c0,-1.326 -0.527,-2.598 -1.464,-3.536c-0.938,-0.937 -2.21,-1.464 -3.536,-1.464c-5.322,0 -14.678,0 -20,0c-1.326,-0 -2.598,0.527 -3.536,1.464c-0.937,0.938 -1.464,2.21 -1.464,3.536c0,3.486 0,8.514 0,12c-0,1.326 0.527,2.598 1.464,3.536c0.938,0.937 2.21,1.464 3.536,1.464c5.322,-0 14.678,-0 20,-0c1.326,0 2.598,-0.527 3.536,-1.464c0.937,-0.938 1.464,-2.21 1.464,-3.536c0,-3.486 0,-8.514 0,-12Zm-26.556,-0.221c-0,-0 5.145,4.237 8.372,6.894c1.849,1.523 4.519,1.52 6.365,-0.007c3.237,-2.677 8.413,-6.959 8.413,-6.959c0.425,-0.352 0.485,-0.983 0.133,-1.408c-0.351,-0.425 -0.982,-0.485 -1.408,-0.133c0,-0 -5.176,4.281 -8.412,6.959c-1.108,0.916 -2.71,0.918 -3.82,0.004c0,0 -8.372,-6.894 -8.372,-6.894c-0.426,-0.351 -1.056,-0.29 -1.407,0.136c-0.351,0.426 -0.29,1.057 0.136,1.408Z"/><g id="Icon"/>
</svg>

<svg width="24" height="24" viewBox="0 0 32 32" xml:space="preserve" xmlns="http://www.w3.org/2000/svg" fill-rule="evenodd" clip-rule="evenodd" stroke-linejoin="round" stroke-miterlimit="2" fill="currentColor">
  <path d="M31 10a5.004 5.004 0 0 0-1.464-3.536A5.004 5.004 0 0 0 26 5H6a5.004 5.004 0 0 0-3.536 1.464A5.004 5.004 0 0 0 1 10v12c0 1.326.527 2.598 1.464 3.536A5.004 5.004 0 0 0 6 27h20a5.004 5.004 0 0 0 3.536-1.464A5.004 5.004 0 0 0 31 22V10ZM4.444 9.779l8.372 6.894a5 5 0 0 0 6.365-.007l8.413-6.959a1 1 0 0 0-1.275-1.541l-8.412 6.959a3.001 3.001 0 0 1-3.82.004L5.715 8.235a1 1 0 1 0-1.271 1.544Z"/>
</svg>
